desktop/renderer-app/src/components/MainPageLayoutContainer/icons/device-active.svg

<?xml version="1.0" encoding="UTF-8"?>
<svg width="32px" height="32px" viewBox="0 0 32 32" version="1.1" xmlns="http://www.w3.org/2000/svg" xmlns:xlink="http://www.w3.org/1999/xlink">
    <title>矩形备份 25</title>
    <g id="Flat-单窗口" stroke="none" stroke-width="1" fill="none" fill-rule="evenodd">
        <g id="菜单栏（单窗口）" transform="translate(-20.000000, -592.000000)">
            <g id="invite备份-11" transform="translate(20.000000, 592.000000)">
                <path d="M21.3333333,7.5 C23.082235,7.5 24.5,8.91776496 24.5,10.6666667 L24.5,10.6666667 L24.5,18.6666667 C24.5,20.4155684 23.082235,21.8333333 21.3333333,21.8333333 L21.3333333,21.8333333 L10.6666667,21.8333333 C8.91776496,21.8333333 7.5,20.4155684 7.5,18.6666667 L7.5,18.6666667 L7.5,10.6666667 C7.5,8.91776496 8.91776496,7.5 10.6666667,7.5 L10.6666667,7.5 Z M15.0656046,11.697891 C14.8507315,11.4100495 14.3895412,11.436217 14.2194531,11.7763932 L14.2194531,11.7763932 L13.024,14.166 L10.6666667,14.1666667 L10.576791,14.1747223 C10.3435418,14.2170583 10.1666667,14.4212068 10.1666667,14.6666667 C10.1666667,14.942809 10.3905243,15.1666667 10.6666667,15.1666667 L10.6666667,15.1666667 L13.3333333,15.1666667 L13.4263376,15.1579564 C13.5779733,15.1292665 13.7099669,15.0314335 13.7805469,14.8902735 L13.7805469,14.8902735 L14.666,13.117 L16.8861197,17.5569401 L16.9343954,17.6354423 C17.1492685,17.9232838 17.6104588,17.8971164 17.7805469,17.5569401 L17.7805469,17.5569401 L18.975,15.166 L21.3333333,15.1666667 L21.423209,15.158611 C21.6564582,15.116275 21.8333333,14.9121266 21.8333333,14.6666667 C21.8333333,14.3905243 21.6094757,14.1666667 21.3333333,14.1666667 L21.3333333,14.1666667 L18.6666667,14.1666667 L18.5736624,14.1753769 C18.4220267,14.2040668 18.2900331,14.3018999 18.2194531,14.4430599 L18.2194531,14.4430599 L17.333,16.215 L15.1138803,11.7763932 Z" id="形状结合" fill="#FFFFFF" fill-rule="nonzero"></path>
                <line x1="10.6666667" y1="24" x2="21.3333333" y2="24" id="路径-9" stroke="#FFFFFF" stroke-linecap="round" stroke-linejoin="round"></line>
            </g>
        </g>
    </g>
</svg>

<svg width="32" height="32" xmlns="http://www.w3.org/2000/svg"><g fill="none" fill-rule="evenodd"><path d="M21.333 7.5a3.167 3.167 0 0 1 3.167 3.167v8a3.167 3.167 0 0 1-3.167 3.166H10.667A3.167 3.167 0 0 1 7.5 18.667v-8A3.167 3.167 0 0 1 10.667 7.5Zm-6.267 4.198a.5.5 0 0 0-.847.078l-1.195 2.39h-2.357l-.09.009a.5.5 0 0 0 .09.992h2.666l.093-.009a.5.5 0 0 0 .355-.268l.885-1.773 2.22 4.44.048.078a.5.5 0 0 0 .847-.078l1.194-2.391h2.358l.09-.007a.5.5 0 0 0-.09-.992h-2.666l-.093.008a.5.5 0 0 0-.355.268l-.886 1.772-2.22-4.439Z" fill="#FFF" fill-rule="nonzero"/><path stroke="#FFF" stroke-linecap="round" stroke-linejoin="round" d="M10.667 24h10.666"/></g></svg>
